assets/tinygrad/original.svg

<svg fill="#fff" viewBox="0 0 24 24" xmlns="http://www.w3.org/2000/svg"><path d="m1.846 7.385v1.845h-1.846v1.846h1.846v3.692h3.692v-1.846h-1.846v-1.846h1.846v-1.846h-1.846v-1.845zm5.539 0v1.845h1.845v-1.845zm3.692 1.846v5.538h1.846v-3.692h1.846v-1.847h-1.846zm3.692 1.846v3.692h1.846v-3.692zm3.693-1.846v3.692h3.692v1.846h1.846v-5.538h-1.846v1.846h-1.846v-1.847zm3.692 5.538h-3.692v1.846h3.692zm-14.77-3.692v3.692h1.847v-3.692z"/></svg>

<svg xmlns="http://www.w3.org/2000/svg" fill="#fff" viewBox="0 0 24 24"><path d="M1.846 7.385V9.23H0v1.846h1.846v3.692h3.692v-1.846H3.692v-1.846h1.846V9.23H3.692V7.385zm5.539 0V9.23H9.23V7.385zm3.692 1.846v5.538h1.846v-3.692h1.846V9.23h-1.846zm3.692 1.846v3.692h1.846v-3.692zm3.693-1.846v3.692h3.692v1.846H24V9.231h-1.846v1.846h-1.846V9.23zm3.692 5.538h-3.692v1.846h3.692zm-14.77-3.692v3.692h1.847v-3.692z"/></svg>
